Icons/com_outlook_Z7.svg

<svg viewBox="0 0 48 48" xmlns:xlink="http://www.w3.org/1999/xlink">
 <defs>
  <linearGradient id="0">
   <stop stop-opacity="0"/>
   <stop offset="1"/>
  </linearGradient>
  <linearGradient xlink:href="#0" id="1" gradientUnits="userSpaceOnUse" gradientTransform="translate(4e-7,-48)" y1="47" x2="0" y2="1"/>
  <clipPath id="2">
   <g transform="translate(0,-1004.3622)">
    <rect rx="4" y="1005.36" x="1" height="46" width="46" fill="#1890d0"/>
   </g>
  </clipPath>
  <clipPath id="3">
   <g transform="translate(0,-1004.3622)">
    <rect rx="4" y="1005.36" x="1" height="46" width="46" fill="#1890d0"/>
   </g>
  </clipPath>
 </defs>
 <g>
  <g transform="translate(0,-1004.3622)">
   <path d="m 5,1006.3622 c -2.216,0 -4,1.784 -4,4 l 0,37.25 c 0,2.216 1.784,4 4,4 l 38,0 c 2.216,0 4,-1.784 4,-4 l 0,-37.25 c 0,-2.216 -1.784,-4 -4,-4 l -38,0 z m -4,41.5 0,0.5 c 0,2.216 1.784,4 4,4 l 38,0 c 2.216,0 4,-1.784 4,-4 l 0,-0.5 c 0,2.216 -1.784,4 -4,4 l -38,0 c -2.216,0 -4,-1.784 -4,-4 z" opacity="0.02"/>
   <path d="m 1,1047.6122 0,0.25 c 0,2.216 1.784,4 4,4 l 38,0 c 2.216,0 4,-1.784 4,-4 l 0,-0.25 c 0,2.216 -1.784,4 -4,4 l -38,0 c -2.216,0 -4,-1.784 -4,-4 z" opacity="0.05"/>
   <rect width="46" height="46" x="1" y="1005.61" rx="4" opacity="0.1"/>
  </g>
 </g>
 <g>
  <g transform="translate(0,-1004.3622)">
   <rect rx="4" y="1005.36" x="1" height="46" width="46" fill="#007fda"/>
  </g>
 </g>
 <g>
  <rect transform="scale(1,-1)" width="46" height="46" x="1" y="-46.998" rx="4" opacity="0.1" fill="url(#1)"/>
 </g>
 <g>
  <g clip-path="url(#2)">
   <g opacity="0.1">
    <g>
     <path d="M 27 17 L 27 21.78125 L 28.679688 23 L 28.859375 23 L 36 18 C 36 17.4375 35.605469 17 35 17 Z M 27 17 "/>
     <path d="M 27.019531 23.535156 L 28.53125 24.5625 C 28.746094 24.71875 29.003906 24.5625 29.003906 24.5625 C 28.746094 24.71875 36 20 36 20 L 36 29 C 36 29.609375 35.695312 30 35 30 L 27 30 Z M 27.019531 23.535156 "/>
     <path d="M 19.179688 21.371094 C 18.664062 21.371094 18.253906 21.609375 17.953125 22.089844 C 17.648438 22.566406 17.496094 23.199219 17.496094 23.988281 C 17.496094 24.789062 17.648438 25.421875 17.953125 25.886719 C 18.253906 26.355469 18.652344 26.585938 19.144531 26.585938 C 19.652344 26.585938 20.054688 26.359375 20.351562 25.90625 C 20.648438 25.453125 20.800781 24.828125 20.800781 24.023438 C 20.800781 23.1875 20.65625 22.535156 20.367188 22.066406 C 20.078125 21.601562 19.683594 21.371094 19.179688 21.371094 Z M 19.179688 21.371094 "/>
     <path d="M 12 15 L 12 33 L 26 36 L 26 12 Z M 21.453125 26.992188 C 20.855469 27.769531 20.078125 28.160156 19.117188 28.160156 C 18.179688 28.160156 17.417969 27.78125 16.828125 27.03125 C 16.242188 26.277344 15.945312 25.296875 15.945312 24.085938 C 15.945312 22.808594 16.246094 21.773438 16.84375 20.984375 C 17.441406 20.199219 18.234375 19.804688 19.222656 19.804688 C 20.152344 19.804688 20.910156 20.179688 21.484375 20.933594 C 22.058594 21.691406 22.347656 22.683594 22.347656 23.921875 C 22.347656 25.191406 22.050781 26.214844 21.453125 26.992188 Z M 21.453125 26.992188 "/>
    </g>
   </g>
  </g>
 </g>
 <g>
  <g clip-path="url(#3)">
   <g transform="translate(0,-1)">
    <g>
     <path d="M 27 17 L 27 21.78125 L 28.679688 23 L 28.859375 23 L 36 18 C 36 17.4375 35.605469 17 35 17 Z M 27 17 " fill="#f9f9f9"/>
     <path d="M 27.019531 23.535156 L 28.53125 24.5625 C 28.746094 24.71875 29.003906 24.5625 29.003906 24.5625 C 28.746094 24.71875 36 20 36 20 L 36 29 C 36 29.609375 35.695312 30 35 30 L 27 30 Z M 27.019531 23.535156 " fill="#f9f9f9"/>
     <path d="M 19.179688 21.371094 C 18.664062 21.371094 18.253906 21.609375 17.953125 22.089844 C 17.648438 22.566406 17.496094 23.199219 17.496094 23.988281 C 17.496094 24.789062 17.648438 25.421875 17.953125 25.886719 C 18.253906 26.355469 18.652344 26.585938 19.144531 26.585938 C 19.652344 26.585938 20.054688 26.359375 20.351562 25.90625 C 20.648438 25.453125 20.800781 24.828125 20.800781 24.023438 C 20.800781 23.1875 20.65625 22.535156 20.367188 22.066406 C 20.078125 21.601562 19.683594 21.371094 19.179688 21.371094 Z M 19.179688 21.371094 " fill="#f9f9f9"/>
     <path d="M 12 15 L 12 33 L 26 36 L 26 12 Z M 21.453125 26.992188 C 20.855469 27.769531 20.078125 28.160156 19.117188 28.160156 C 18.179688 28.160156 17.417969 27.78125 16.828125 27.03125 C 16.242188 26.277344 15.945312 25.296875 15.945312 24.085938 C 15.945312 22.808594 16.246094 21.773438 16.84375 20.984375 C 17.441406 20.199219 18.234375 19.804688 19.222656 19.804688 C 20.152344 19.804688 20.910156 20.179688 21.484375 20.933594 C 22.058594 21.691406 22.347656 22.683594 22.347656 23.921875 C 22.347656 25.191406 22.050781 26.214844 21.453125 26.992188 Z M 21.453125 26.992188 " fill="#f9f9f9"/>
    </g>
   </g>
  </g>
 </g>
 <g>
  <g transform="translate(0,-1004.3622)">
   <path d="m 1,1043.3622 0,4 c 0,2.216 1.784,4 4,4 l 38,0 c 2.216,0 4,-1.784 4,-4 l 0,-4 c 0,2.216 -1.784,4 -4,4 l -38,0 c -2.216,0 -4,-1.784 -4,-4 z" opacity="0.1"/>
  </g>
 </g>
</svg>

<svg viewBox="0 0 48 48"><defs><linearGradient id="linearGradient3764" x1="1" x2="47" gradientUnits="userSpaceOnUse" gradientTransform="translate(-48.000001,0.00221467)"><stop stop-color="#0074c6" stop-opacity="1"/><stop offset="1" stop-color="#007fda" stop-opacity="1"/></linearGradient><clipPath id="clipPath-006893879"><g transform="translate(0,-1004.3622)"><rect rx="4" y="1005.36" x="1" height="46" width="46" fill="#1890d0"/></g></clipPath><clipPath id="clipPath-035825593"><g transform="translate(0,-1004.3622)"><rect rx="4" y="1005.36" x="1" height="46" width="46" fill="#1890d0"/></g></clipPath></defs><g><path d="m 1 43 l 0 0.25 c 0 2.216 1.784 4 4 4 l 38 0 c 2.216 0 4 -1.784 4 -4 l 0 -0.25 c 0 2.216 -1.784 4 -4 4 l -38 0 c -2.216 0 -4 -1.784 -4 -4 z m 0 0.5 l 0 0.5 c 0 2.216 1.784 4 4 4 l 38 0 c 2.216 0 4 -1.784 4 -4 l 0 -0.5 c 0 2.216 -1.784 4 -4 4 l -38 0 c -2.216 0 -4 -1.784 -4 -4 z" opacity="0.02"/><path d="m 1 43.25 l 0 0.25 c 0 2.216 1.784 4 4 4 l 38 0 c 2.216 0 4 -1.784 4 -4 l 0 -0.25 c 0 2.216 -1.784 4 -4 4 l -38 0 c -2.216 0 -4 -1.784 -4 -4 z" opacity="0.05"/><path d="m 1 43 l 0 0.25 c 0 2.216 1.784 4 4 4 l 38 0 c 2.216 0 4 -1.784 4 -4 l 0 -0.25 c 0 2.216 -1.784 4 -4 4 l -38 0 c -2.216 0 -4 -1.784 -4 -4 z" opacity="0.1"/></g><g><rect width="46" height="46" x="-47" y="1" rx="4" transform="matrix(0,-1,1,0,0,0)" fill="url(#linearGradient3764)" fill-opacity="1"/></g><g><g clip-path="url(#clipPath-006893879)"><g opacity="0.1"><!-- color: #007fda --><g><path d="m 27 17 l 0 4.781 l 1.68 1.219 l 0.18 0 l 7.141 -5 c 0 -0.563 -0.395 -1 -1 -1 m -8 0" fill="#000"/><path d="m 27.02 23.535 l 1.512 1.027 c 0.215 0.156 0.473 0 0.473 0 c -0.258 0.156 6.996 -4.563 6.996 -4.563 l 0 9 c 0 0.609 -0.305 1 -1 1 l -8 0 m 0.02 -6.465" fill="#000"/><path d="m 19.18 21.371 c -0.516 0 -0.926 0.238 -1.227 0.719 c -0.305 0.477 -0.457 1.109 -0.457 1.898 c 0 0.801 0.152 1.434 0.457 1.898 c 0.301 0.469 0.699 0.699 1.191 0.699 c 0.508 0 0.91 -0.227 1.207 -0.68 c 0.297 -0.453 0.449 -1.078 0.449 -1.883 c 0 -0.836 -0.145 -1.488 -0.434 -1.957 c -0.289 -0.465 -0.684 -0.695 -1.188 -0.695 m 0 0" fill="#000"/><path d="m 12 15 l 0 18 l 14 3 l 0 -24 m -4.547 14.992 c -0.598 0.777 -1.375 1.168 -2.336 1.168 c -0.938 0 -1.699 -0.379 -2.289 -1.129 c -0.586 -0.754 -0.883 -1.734 -0.883 -2.945 c 0 -1.277 0.301 -2.313 0.898 -3.102 c 0.598 -0.785 1.391 -1.18 2.379 -1.18 c 0.93 0 1.688 0.375 2.262 1.129 c 0.574 0.758 0.863 1.75 0.863 2.988 c 0 1.27 -0.297 2.293 -0.895 3.07 m 0 0" fill="#000"/></g></g></g></g><g><g clip-path="url(#clipPath-035825593)"><g transform="translate(0,-1)"><!-- color: #007fda --><g><path d="m 27 17 l 0 4.781 l 1.68 1.219 l 0.18 0 l 7.141 -5 c 0 -0.563 -0.395 -1 -1 -1 m -8 0" fill="#f9f9f9"/><path d="m 27.02 23.535 l 1.512 1.027 c 0.215 0.156 0.473 0 0.473 0 c -0.258 0.156 6.996 -4.563 6.996 -4.563 l 0 9 c 0 0.609 -0.305 1 -1 1 l -8 0 m 0.02 -6.465" fill="#f9f9f9"/><path d="m 19.18 21.371 c -0.516 0 -0.926 0.238 -1.227 0.719 c -0.305 0.477 -0.457 1.109 -0.457 1.898 c 0 0.801 0.152 1.434 0.457 1.898 c 0.301 0.469 0.699 0.699 1.191 0.699 c 0.508 0 0.91 -0.227 1.207 -0.68 c 0.297 -0.453 0.449 -1.078 0.449 -1.883 c 0 -0.836 -0.145 -1.488 -0.434 -1.957 c -0.289 -0.465 -0.684 -0.695 -1.188 -0.695 m 0 0" fill="#f9f9f9"/><path d="m 12 15 l 0 18 l 14 3 l 0 -24 m -4.547 14.992 c -0.598 0.777 -1.375 1.168 -2.336 1.168 c -0.938 0 -1.699 -0.379 -2.289 -1.129 c -0.586 -0.754 -0.883 -1.734 -0.883 -2.945 c 0 -1.277 0.301 -2.313 0.898 -3.102 c 0.598 -0.785 1.391 -1.18 2.379 -1.18 c 0.93 0 1.688 0.375 2.262 1.129 c 0.574 0.758 0.863 1.75 0.863 2.988 c 0 1.27 -0.297 2.293 -0.895 3.07 m 0 0" fill="#f9f9f9"/></g></g></g></g><g><g transform="translate(0,-1004.3622)"><path d="m 1 1043.36 0 4 c 0 2.216 1.784 4 4 4 l 38 0 c 2.216 0 4 -1.784 4 -4 l 0 -4 c 0 2.216 -1.784 4 -4 4 l -38 0 c -2.216 0 -4 -1.784 -4 -4 z" opacity="0.1"/></g></g></svg>
